!!!COM: Gaspar van Weerbeke
!!!CDT: ~1450-~1517
!!!OPR: In honorem sancti spiritus
!!!OTL: Confirma hoc, deus
!!!ONM: 4
!!!AGN: Motet
!!!SCT: Gas0303d
!!!SCA: Gas0303d
!!!voices: 4
**kern	**text	**kern	**text	**kern	**text	**kern	**text
*part4	*part4	*part3	*part3	*part2	*part2	*part1	*part1
*staff4	*staff4	*staff3	*staff3	*staff2	*staff2	*staff1	*staff1
*I"Bassus	*	*I"Tenor	*	*I"Altus	*	*I"Superius	*
*I'B	*	*I'T	*	*I'A	*	*I'S	*
*clefF4	*	*clefGv2	*	*clefGv2	*	*clefG2	*
*k[]	*	*k[]	*	*k[]	*	*k[]	*
*M2/2	*	*M2/2	*	*M2/2	*	*M2/2	*
*met(C|)	*	*met(C|)	*	*met(C|)	*	*met(C|)	*
=1	=1	=1	=1	=1	=1	=1	=1
1r	.	1G	Con-	1r	.	1r	.
=2	=2	=2	=2	=2	=2	=2	=2
*	*	*lig	*	*	*	*	*
1r	.	2G	-fir-	1r	.	1r	.
.	.	2A	.	.	.	.	.
*	*	*Xlig	*	*	*	*	*
=3	=3	=3	=3	=3	=3	=3	=3
1C	Con-	4G	.	1r	.	1r	.
.	.	2c	.	.	.	.	.
.	.	8BL	.	.	.	.	.
.	.	8AJ	.	.	.	.	.
=4	=4	=4	=4	=4	=4	=4	=4
*lig	*	*	*	*	*	*	*
2C	-fir-	4G	.	1r	.	1r	.
.	.	2A	.	.	.	.	.
2D	.	.	.	.	.	.	.
.	.	8GL	.	.	.	.	.
.	.	8FJ	.	.	.	.	.
*Xlig	*	*	*	*	*	*	*
=5	=5	=5	=5	=5	=5	=5	=5
[1C	.	4.E	.	1r	.	1r	.
.	.	8F	.	.	.	.	.
.	.	4A	.	.	.	.	.
.	.	[4G	.	.	.	.	.
=6	=6	=6	=6	=6	=6	=6	=6
2C]	.	8GL]	.	1r	.	1r	.
.	.	8F	.	.	.	.	.
.	.	8E	.	.	.	.	.
.	.	8DJ	.	.	.	.	.
2C	-ma,	2E	.	.	.	.	.
=7	=7	=7	=7	=7	=7	=7	=7
*	*edit	*	*	*	*	*	*
2D	con-	1D	-ma,	1r	.	1r	.
[2GG	.	.	.	.	.	.	.
!!LO:LB:g=original
=8	=8	=8	=8	=8	=8	=8	=8
*	*	*	*edit	*	*	*	*
2GG]	.	2d	con-	1r	.	1r	.
2G	-fir-	8dL	-fir-	.	.	.	.
.	.	8c	.	.	.	.	.
.	.	8B	.	.	.	.	.
.	.	8AJ	.	.	.	.	.
=9	=9	=9	=9	=9	=9	=9	=9
2E	.	4G	.	1r	.	1r	.
.	.	8FL	.	.	.	.	.
.	.	8EJ	.	.	.	.	.
2F	.	4.D	.	.	.	.	.
.	.	8E	.	.	.	.	.
=10	=10	=10	=10	=10	=10	=10	=10
4.D	.	8FL	.	1r	.	1r	.
.	.	8GJ	.	.	.	.	.
.	.	2A	.	.	.	.	.
8E	.	.	.	.	.	.	.
4F	.	.	.	.	.	.	.
[4G	.	[4B	.	.	.	.	.
=11	=11	=11	=11	=11	=11	=11	=11
4G]	.	4B]	.	1r	.	1r	.
4E	.	4c	.	.	.	.	.
2F#i	.	2A	.	.	.	.	.
=12	=12	=12	=12	=12	=12	=12	=12
1G	-ma,	1G	-ma,	1r	.	1r	.
=13	=13	=13	=13	=13	=13	=13	=13
1r	.	1r	.	2.d	hoc,	[1a	hoc,
.	.	.	.	4e	.	.	.
=14	=14	=14	=14	=14	=14	=14	=14
1r	.	1r	.	2f	.	2a]	.
.	.	.	.	2f	de-	2a	de-
=15	=15	=15	=15	=15	=15	=15	=15
1r	.	1r	.	2.g	-us,	[1b	-us,
.	.	.	.	8fL	.	.	.
.	.	.	.	8eJ	.	.	.
=16	=16	=16	=16	=16	=16	=16	=16
1r	.	1r	.	1d	.	1b]	.
!!LO:LB:g=original
=17	=17	=17	=17	=17	=17	=17	=17
1r	.	1r	.	2e	quod	2cc	quod
.	.	.	.	2g	o-	2b	o-
=18	=18	=18	=18	=18	=18	=18	=18
1r	.	1r	.	2.f	-pe-	2a	-pe-
.	.	.	.	.	.	[2cc	-ra-
.	.	.	.	8eL	.	.	.
.	.	.	.	8dJ	.	.	.
=19	=19	=19	=19	=19	=19	=19	=19
1r	.	1r	.	4.c	-ra-	4cc]	.
.	.	.	.	.	.	8bL	.
.	.	.	.	8d	.	8aJ	.
.	.	.	.	2e	-tus	2g	-tus
=20	=20	=20	=20	=20	=20	=20	=20
1r	.	1r	.	4f	es	2a	es
.	.	.	.	2d	in	.	.
.	.	.	.	.	.	2b	in
.	.	.	.	8cL	.	.	.
.	.	.	.	8BJ	.	.	.
=21	=21	=21	=21	=21	=21	=21	=21
1r	.	1r	.	2A	no-	4cc	no-
.	.	.	.	.	.	2a	.
.	.	.	.	8FL	.	.	.
.	.	.	.	8G	.	.	.
.	.	.	.	8A	.	8gL	.
.	.	.	.	8BJ	.	8fJ	.
=22	=22	=22	=22	=22	=22	=22	=22
1r	.	1r	.	4c	.	4e	.
.	.	.	.	4d	.	4f	.
.	.	.	.	4B	.	8gL	.
.	.	.	.	.	.	8f	.
.	.	.	.	[4e	.	8e	.
.	.	.	.	.	.	8dJ	.
=23	=23	=23	=23	=23	=23	=23	=23
1r	.	1r	.	4e]	.	4c	.
.	.	.	.	2d	.	4f	.
.	.	.	.	.	.	2e	.
.	.	.	.	4c#i	.	.	.
=24	=24	=24	=24	=24	=24	=24	=24
1r	.	1r	.	1d	-bis.	1d	-bis.
!!LO:LB:g=original
=25	=25	=25	=25	=25	=25	=25	=25
*	*Xedit	*	*Xedit	*	*	*	*
1D	A	1A	A	1r	.	1r	.
=26	=26	=26	=26	=26	=26	=26	=26
2.D	tem-	2B	tem-	1r	.	1r	.
.	.	2A	-plo	.	.	.	.
4C	-plo	.	.	.	.	.	.
=27	=27	=27	=27	=27	=27	=27	=27
4BB	sanc-	2.d	sanc-	1r	.	1r	.
4GG	.	.	.	.	.	.	.
2AA	.	.	.	.	.	.	.
.	.	4c	.	.	.	.	.
=28	=28	=28	=28	=28	=28	=28	=28
4GG	-to,	4B	.	1r	.	1r	.
*	*edit	*	*	*	*	*	*
2G	sanc-	4G	.	.	.	.	.
.	.	2A	.	.	.	.	.
4F	.	.	.	.	.	.	.
=29	=29	=29	=29	=29	=29	=29	=29
4E	.	4G	-to,	1r	.	1r	.
*	*	*	*edit	*	*	*	*
4C	.	2c	sanc-	.	.	.	.
2D	.	.	.	.	.	.	.
.	.	4B	.	.	.	.	.
=30	=30	=30	=30	=30	=30	=30	=30
4C	-to,	4A	.	1r	.	1r	.
2F	sanc-	4F	.	.	.	.	.
.	.	2G	.	.	.	.	.
4E	.	.	.	.	.	.	.
=31	=31	=31	=31	=31	=31	=31	=31
4D	.	4F	-to,	1r	.	1r	.
8CL	.	2A	sanc-	.	.	.	.
8BBJ	.	.	.	.	.	.	.
4AA	.	.	.	.	.	.	.
4BB	.	4G	.	.	.	.	.
=32	=32	=32	=32	=32	=32	=32	=32
4AA	.	4F	.	1r	.	1r	.
2D	.	4D	.	.	.	.	.
.	.	2E	.	.	.	.	.
4C#i	.	.	.	.	.	.	.
!!LO:PB:g=original
=33	=33	=33	=33	=33	=33	=33	=33
1D	-to,	4.D	-to,	1d	sanc-	1a	sanc-
.	.	8E	.	.	.	.	.
.	.	2F	.	.	.	.	.
=34	=34	=34	=34	=34	=34	=34	=34
2GG	sanc-	2G	sanc-	4.d	-to	2b	-to
.	.	.	.	8e	.	.	.
*	*	*lig	*	*	*	*	*
2D	.	2A	.	2f	.	2a	.
=35	=35	=35	=35	=35	=35	=35	=35
4BB	.	2G	.	2g	tu-	2.dd	tu-
4GG	.	.	.	.	.	.	.
*	*	*Xlig	*	*	*	*	*
2D	-to	2F	-to	[2a	.	.	.
.	.	.	.	.	.	8ccL	.
.	.	.	.	.	.	8bJ	.
=36	=36	=36	=36	=36	=36	=36	=36
*	*Xedit	*	*	*	*	*	*
2F	tu-	4r	.	4a]	.	4a	.
*	*	*	*Xedit	*	*	*	*
.	.	4A	tu-	4a	-o,	4cc	-o,
*	*	*	*	*	*edit	*	*edit
4G	-o,	4B	.	4g	tu-	4b	tu-
*	*edit	*	*	*	*	*	*
4GG	tu-	[4d	.	8fL	.	8aL	.
.	.	.	.	8eJ	.	8gJ	.
=37	=37	=37	=37	=37	=37	=37	=37
4D	.	4d]	.	4d	.	4f#i	.
4E	.	4G	.	4c	.	2g	.
2D	.	2A	.	2d	.	.	.
.	.	.	.	.	.	4f#i	.
=38	=38	=38	=38	=38	=38	=38	=38
1E	-o	1G	-o	2B	-o	1g	-o
.	.	.	.	2G	.	.	.
=39	=39	=39	=39	=39	=39	=39	=39
*	*Xedit	*	*	*	*Xedit	*	*Xedit
2C	quod	1c	quod	2.g	quod	2e	quod
4E	.	.	.	.	.	4g	.
4F	.	.	.	4f	.	4a	.
=40	=40	=40	=40	=40	=40	=40	=40
4E	est	1c	est	4g	est	4g	.
2F	.	.	.	4c	.	2a	.
.	.	.	.	2f	in	.	.
8EL	.	.	.	.	.	[4cc	.
8DJ	.	.	.	.	.	.	.
!!LO:LB:g=original
=41	=41	=41	=41	=41	=41	=41	=41
2C	in	2c	in	1e	Hie-	4cc]	.
.	.	.	.	.	.	8bL	.
.	.	.	.	.	.	8aJ	.
2E	.	2c	Hie-	.	.	2g	.
=42	=42	=42	=42	=42	=42	=42	=42
1D	Hie-	2.d	-ru-	2A	-ru-	1f	est
.	.	.	.	2d	.	.	.
.	.	4c	.	.	.	.	.
=43	=43	=43	=43	=43	=43	=43	=43
[1F	-ru-	1A	.	2.c	.	2r	.
.	.	.	.	.	.	[2a	in
.	.	.	.	4B	.	.	.
=44	=44	=44	=44	=44	=44	=44	=44
2F]	.	2c	.	2A	.	2a]	.
2G	.	2B	.	2G	.	2b	Hie-
=45	=45	=45	=45	=45	=45	=45	=45
2A	.	2A	.	4F	.	2cc	-ru-
.	.	.	.	4.f	-sa-	.	.
4F	.	4.d	.	.	.	4a	.
.	.	.	.	8e	.	.	.
4G	.	.	.	4d	.	[4b	.
.	.	8c	.	.	.	.	.
=46	=46	=46	=46	=46	=46	=46	=46
4A	.	2A	.	4c	.	4b]	.
4F	.	.	.	4d	.	2a	.
2E	.	2B	-sa-	2e	.	.	.
.	.	.	.	.	.	4g#i	-sa-
=47	=47	=47	=47	=47	=47	=47	=47
1F	.	1A	-lem,	2c	-lem,	1a	-lem,
.	.	.	.	[2f	Ti-	.	.
=48	=48	=48	=48	=48	=48	=48	=48
1D	-sa-	1r	.	4f]	.	1r	.
.	.	.	.	4g	.	.	.
.	.	.	.	[2a	.	.	.
=49	=49	=49	=49	=49	=49	=49	=49
1AA	-lem,	1r	.	4a]	.	1cc	Ti-
.	.	.	.	8gL	.	.	.
.	.	.	.	8fJ	.	.	.
.	.	.	.	2e	.	.	.
!!LO:LB:g=original
=50	=50	=50	=50	=50	=50	=50	=50
1r	.	1r	.	2f	.	2.dd	.
.	.	.	.	4d	.	.	.
.	.	.	.	4f	.	4a	.
=51	=51	=51	=51	=51	=51	=51	=51
1r	.	1r	.	4e	.	4b	.
.	.	.	.	4.a	.	2cc	.
.	.	.	.	8g	.	.	.
.	.	.	.	4f	.	4a	.
=52	=52	=52	=52	=52	=52	=52	=52
1r	.	1r	.	4e	.	4b	.
.	.	.	.	4d	.	2dd	.
.	.	.	.	2e	.	.	.
.	.	.	.	.	.	4cc	.
=53	=53	=53	=53	=53	=53	=53	=53
1r	.	1r	.	1d	-bi,	2.dd	.
.	.	.	.	.	.	8ccL	.
.	.	.	.	.	.	8bJ	.
=54	=54	=54	=54	=54	=54	=54	=54
*	*	*	*	*	*edit	*	*
1r	.	1r	.	2f	ti-	4a	-bi,
*	*	*	*	*	*	*	*edit
.	.	.	.	.	.	2cc	ti-
.	.	.	.	4.c	.	.	.
.	.	.	.	.	.	8bL	.
.	.	.	.	8d	.	8aJ	.
=55	=55	=55	=55	=55	=55	=55	=55
1r	.	1r	.	2e	.	2g	.
.	.	.	.	2d	-bi	2f	-bi
=56	=56	=56	=56	=56	=56	=56	=56
1D	of-	2.d	of-	1r	.	1r	.
.	.	8cL	.	.	.	.	.
.	.	8BJ	.	.	.	.	.
=57	=57	=57	=57	=57	=57	=57	=57
2F	-fe-	4A	.	1r	.	1r	.
.	.	2c	-fe-	.	.	.	.
4.C	.	.	.	.	.	.	.
.	.	8BL	.	.	.	.	.
8D	.	8AJ	.	.	.	.	.
=58	=58	=58	=58	=58	=58	=58	=58
2E	.	2G	.	1r	.	1r	.
2D	.	2F	.	.	.	.	.
!!LO:LB:g=original
=59	=59	=59	=59	=59	=59	=59	=59
4.F	.	8DL	.	1r	.	1r	.
.	.	8E	.	.	.	.	.
.	.	8F	.	.	.	.	.
8E	.	8GJ	.	.	.	.	.
4D	.	8AL	.	.	.	.	.
.	.	8B	.	.	.	.	.
4C	.	8c	.	.	.	.	.
.	.	8dJ	.	.	.	.	.
=60	=60	=60	=60	=60	=60	=60	=60
2.AA	.	4c	.	1r	.	1r	.
.	.	8BL	.	.	.	.	.
.	.	8AJ	.	.	.	.	.
.	.	4c	.	.	.	.	.
4GG	.	[4B	.	.	.	.	.
=61	=61	=61	=61	=61	=61	=61	=61
4AA	.	4B]	.	1r	.	1r	.
4C	.	2A	.	.	.	.	.
2BB	.	.	.	.	.	.	.
.	.	4G#i	.	.	.	.	.
=62	=62	=62	=62	=62	=62	=62	=62
1AA	-rent	1A	-rent	1r	.	1r	.
=63	=63	=63	=63	=63	=63	=63	=63
2.A	re-	2.c	re-	1r	.	1r	.
8GL	.	8BL	.	.	.	.	.
8FJ	.	8AJ	.	.	.	.	.
=64	=64	=64	=64	=64	=64	=64	=64
2G	.	2B	.	1r	.	1r	.
2F	.	4A	.	.	.	.	.
.	.	[4d	.	.	.	.	.
=65	=65	=65	=65	=65	=65	=65	=65
2E	.	4d]	.	1r	.	1r	.
.	.	4c	.	.	.	.	.
2D	.	4d	.	.	.	.	.
.	.	8cL	.	.	.	.	.
.	.	8BJ	.	.	.	.	.
=66	=66	=66	=66	=66	=66	=66	=66
2C	.	8AL	.	1r	.	1r	.
.	.	8G	.	.	.	.	.
.	.	8F	.	.	.	.	.
.	.	8EJ	.	.	.	.	.
2BB	.	4D	.	.	.	.	.
.	.	[4G	.	.	.	.	.
!!LO:PB:g=original
=67	=67	=67	=67	=67	=67	=67	=67
*	*	*	*	*	*Xedit	*	*Xedit
1AA	.	4G]	.	1A	mu-	2.cc	re-
.	.	8F#jL	.	.	.	.	.
.	.	8EJ	.	.	.	.	.
.	.	2F#j	.	.	.	.	.
.	.	.	.	.	.	8bL	.
.	.	.	.	.	.	8aJ	.
=68	=68	=68	=68	=68	=68	=68	=68
2GG	-ges	2G	-ges	8DL	.	2b	.
.	.	.	.	8E	.	.	.
.	.	.	.	8F	.	.	.
.	.	.	.	8GJ	.	.	.
4r	.	[2c	mu-	[2A	.	4cc	-ges
[4F	mu-	.	.	.	.	[4a	mu-
=69	=69	=69	=69	=69	=69	=69	=69
4F]	.	2c]	.	4A]	.	4a]	.
4G	.	.	.	4B	.	8gL	.
.	.	.	.	.	.	8fJ	.
2A	.	2c	-ne-	4.c	-ne-	2e	.
.	.	.	.	8A	.	.	.
=70	=70	=70	=70	=70	=70	=70	=70
2D	.	2d	-ra,	2A	-ra.	4f	.
.	.	.	.	.	.	2d	.
*	*	*	*edit	*	*	*	*
2G	-ne-	2B	mu-	4r	.	.	.
.	.	.	.	[4d	Al-	[4g	.
=71	=71	=71	=71	=71	=71	=71	=71
1D	-ra.	1A	-ne-	2d]	.	4g]	.
.	.	.	.	.	.	8f#iL	.
.	.	.	.	.	.	8eJ	.
.	.	.	.	2d	-le-	2f#i	-ne-
=72	=72	=72	=72	=72	=72	=72	=72
4r	.	1G	-ra.	4B	-lu-	2g	-ra.
4GG	Al-	.	.	4.d	.	.	.
2BB	-le-	.	.	.	.	4r	.
.	.	.	.	8cL	.	.	.
.	.	.	.	8B	.	4d	Al-
.	.	.	.	8AJ	.	.	.
=73	=73	=73	=73	=73	=73	=73	=73
2C	-lu-	2r	.	2G	.	2e	-le-
*	*edit	*	*	*	*	*	*
2D	-ia,	4r	.	8FL	.	2f	-lu-
.	.	.	.	8G	.	.	.
*	*	*	*Xedit	*	*	*	*
.	.	4D	Al-	8A	.	.	.
.	.	.	.	8BJ	.	.	.
=74	=74	=74	=74	=74	=74	=74	=74
4r	.	2E	-le-	4.c	.	2g	-ia,
4C	al-	.	.	.	.	.	.
.	.	.	.	8B	.	.	.
2D	-le-	2F	-lu-	8AL	.	4r	.
.	.	.	.	8G	.	.	.
*	*	*	*	*	*	*	*edit
.	.	.	.	8F	.	4a	al-
.	.	.	.	8EJ	.	.	.
!!LO:LB:g=original
=75	=75	=75	=75	=75	=75	=75	=75
2BB	-lu-	2G	-ia,	2D	.	2b	-le-
*	*	*	*	*	*edit	*	*
2AA	-ia,	4r	.	4C	-ia,	2cc	.
.	.	4A	al-	4c	al-	.	.
=76	=76	=76	=76	=76	=76	=76	=76
4r	.	2B	-le-	4B	-le-	4.dd	-lu-
4G	al-	.	.	8AL	.	.	.
.	.	.	.	8GJ	.	8cc	.
4A	-le-	2c	-lu-	4.F	-lu-	2a	-ia,
[4F	.	.	.	.	.	.	.
.	.	.	.	8G	.	.	.
=77	=77	=77	=77	=77	=77	=77	=77
*	*	*	*edit	*	*	*	*
4F]	.	2d	-ia,	2A	-ia,	4r	.
*	*	*	*	*	*	*	*Xedit
4D	.	.	.	.	.	4f	al-
2E	-lu-	4B	al-	4r	.	4g	.
.	.	4c	.	4G	al-	4e	-le-
=78	=78	=78	=78	=78	=78	=78	=78
2D	-ia,	2d	-le-	2A	-le-	8fL	-lu-
.	.	.	.	.	.	8g	.
.	.	.	.	.	.	8a	.
.	.	.	.	.	.	8bJ	.
4r	.	4A	.	4.F	-lu-	4.cc	.
*	*Xedit	*	*	*	*	*	*
[4F	al-	[4c	-lu-	.	.	.	.
.	.	.	.	8G	.	8b	.
=79	=79	=79	=79	=79	=79	=79	=79
4F]	.	4c]	.	4A	.	8aL	.
.	.	.	.	.	.	8gJ	.
4G	.	4B	.	8BL	.	2g	.
.	.	.	.	8cJ	.	.	.
2D	-le-	2A	.	2d	.	.	.
.	.	.	.	.	.	4f#i	.
=80	=80	=80	=80	=80	=80	=80	=80
*	*	*	*Xedit	*	*	*	*
2.E	-lu-	[1Gl	-ia.	2B	.	[1gl	-ia.
.	.	.	.	8BL	.	.	.
.	.	.	.	8c	.	.	.
8DL	.	.	.	8d	.	.	.
8CJ	.	.	.	8eJ	.	.	.
=81	=81	=81	=81	=81	=81	=81	=81
4BB	.	1G_	.	4d	.	1g_	.
4C	.	.	.	4e	.	.	.
4BB	.	.	.	4d	.	.	.
4C	.	.	.	4c	.	.	.
=82	=82	=82	=82	=82	=82	=82	=82
[1GGl	-ia.	1G_	.	2.B	.	1g_	.
.	.	.	.	4c	.	.	.
=83	=83	=83	=83	=83	=83	=83	=83
*	*	*	*	*	*Xedit	*	*
1GG]	.	1G]	.	1dl	-ia.	1g]	.
==	==	==	==	==	==	==	==
*-	*-	*-	*-	*-	*-	*-	*-
!!!system-decoration: [*]
!!!RDF**kern: j = editorial accidental, optional, paren up
!!!RDF**kern: i = editorial accidental
!!!RDF**kern: l = terminal breve
!!!PTL: Gaspar van Weerbeke: Collected Works. III. The Motet Cycles
!!!PPR: American Institute of Musicology
!!!PC#: Corpus Mensurabilis Musicae 106/III
!!!PDT: 1998
!!!PED: Lindmayr-Brandl, Andrea
!!!YEC: Copyright 1998, Lindmayr-Brandl, Andrea
!!!YEM: CC-BY-SA 4.0 (https://creativecommons.org/licenses/by-nc/4.0/legalcode)
!!!EED: Mair-Gruber, Roland
!!!EEV: 2021/11/25
